Adwaita++/apps/16/intellij.svg

<svg height="16" width="16" xmlns="http://www.w3.org/2000/svg">
  <path d="m.50000063.49953694v15.00046306h14.99999937v-15.00046306zm2.69985137 1.80005336h3.0000916v1.125209h-.8045175v3.89989h.8045175v1.125209h-3.0000916v-1.125209h.9002589v-3.89989h-.9002589zm6.7503233 0h1.3496947v3.975182c0 .374406.000108.9751-.449898 1.575107-.315005.420006-1.0497541.749673-1.724763.749673-1.1250123 0-1.7227744-.658607-1.9501753-.92861l.8468095-.963005c.1530008.169214.5783597.616752 1.1033658.616752.6750089 0 .8249663-.674914.8249663-1.049917zm-7.6501183 10.5000947h5.4001668v.900259h-5.4001668z" fill="#444"/>
</svg>

<svg xmlns="http://www.w3.org/2000/svg" width="16" height="16" version="1.1">
 <title id="title9167">
  Gnome Symbolic Icon Theme
 </title>
 <path fill="#444" d="M 0.50000063,0.49953694 V 15.5 H 15.5 V 0.49953694 Z M 3.199852,2.2995903 h 3.0000916 v 1.125209 H 5.3954261 v 3.89989 h 0.8045175 v 1.125209 H 3.199852 v -1.125209 h 0.9002589 v -3.89989 H 3.199852 Z m 6.7503233,0 H 11.29987 v 3.975182 c 0,0.374406 1.08e-4,0.9751 -0.449898,1.575107 -0.315005,0.420006 -1.0497541,0.749673 -1.724763,0.749673 -1.1250123,0 -1.7227744,-0.658607 -1.9501753,-0.92861 l 0.8468095,-0.963005 c 0.1530008,0.169214 0.5783597,0.616752 1.1033658,0.616752 0.6750089,0 0.8249663,-0.674914 0.8249663,-1.049917 z M 2.300057,12.799685 h 5.4001668 v 0.900259 H 2.300057 Z"/>
</svg>
